!!!COM: Mozart, Wolfgang Amadeus
!!!CDT: 1756/01/27/-1791/12/05/
!!!CNT: German
!!!OTL: Piano Sonata No. 6 in D major
!!!SCT1: K<sup>1</sup> 284
!!!SCT2: K<sup>6</sup> 205b
!!!OMV: Mvmt. 3b
!!!OMD: Variation 1
!!!ODT: 1775///
**kern	**kern	**dynam
*staff2	*staff1	*staff1
*clefF4	*clefG2	*clefG2
*>[A,A,B,B]	*>[A,A,B,B]	*>[A,A,B,B]
*>norep[A,B]	*>norep[A,B]	*>norep[A,B]
*>A	*>A	*>A
*k[f#c#]	*k[f#c#]	*k[f#c#]
*D:	*D:	*D:
*M2/2	*M2/2	*M2/2
*met(c|)	*met(c|)	*met(c|)
*MM120	*MM120	*MM120
=!|:	=!|:	=!|:
2r	(12a/L	p
.	12b/	.
.	12g#/J	.
.	12a/L	.
.	12b/	.
.	12cc#/J	.
=1	=1	=1
4D\ 4F#\	12dd\L	.
.	12ee\	.
.	12cc#\J	.
4r	12dd\L	.
.	12ee\	.
.	12cc#\J	.
4F#\ 4A\	12dd\L	.
.	12ff#\	.
.	12ee\J	.
4r	12dd\L	.
.	12ee\	.
.	12ff#\J	.
=2	=2	=2
4E\ 4B\	12gg\L	.
.	12aa\	.
.	12ff#\J	.
4r	12gg\L	.
.	12ee\	.
.	12dd\J	.
4A\	12cc#\L	.
.	12ee\	.
.	12dd#\J	.
4r	12ee\L	.
.	12ff#\	.
.	12gg\J)	.
=3	=3	=3
2F#\ 2d\	(12gg#\L	.
.	12aa\	.
.	12ff#\J)	.
.	(12gg#\L	.
.	12aa\	.
.	12ff#\J)	.
2G\ 2d\	(12aa#\L	.
.	12bb\	.
.	12ggn\J)	.
.	(12aa#\L	.
.	12bb\	.
.	12gg\J)	.
=4	=4	=4
*^	*	*
(4d/	2A\	(4ff#\	.
4c#/)	.	4ee\)	.
2ryy	2r	(12a/L	f
.	.	12b/	.
.	.	12g#/J	.
.	.	12a/L	.
.	.	12b/	.
.	.	12cc#/J	.
*v	*v	*	*
=5	=5	=5
4r	12dd\L	.
.	12ee\	.
.	12cc#\J	.
*clefG2	*	*
4f#/ 4a/	12dd\L)	.
.	(12ddd\	.
.	12ccc#\J	.
4r	12bb\L	.
.	12ccc#\	.
.	12aa#\J	.
4d/ 4f#/	12bb\L)	.
.	(12ccc#\	.
.	12aan\J	.
=6	=6	=6
4r	12gg#\L	.
.	12aa\	.
.	12ff#\J	.
*clefF4	*	*
4B\ 4d\	12gg#\L)	.
.	(12aa\	.
.	12ff#\J	.
4r	12ee\L	.
.	12ff#\	.
.	12dd#\J	.
4G#\ 4B\	12ee\L)	.
.	(12ff#\	.
.	12ddn\J)	.
=7	=7	=7
4A\	(12cc#\L	.
.	12ee\	.
.	12aa\J)	.
4D\ 4B\	(12ee#\L	.
.	12ff#\	.
.	12dd\J)	.
4E\ 4c#\	(12dd#\L	.
.	12een\	.
.	12cc#\J)	.
4E\ 4G#\ 4d\	(12cc#\L	.
.	12ddn\	.
.	12b\J)	.
=8	=8	=8
*^	*	*
(4d/	2A\	(4b\	.
4c#/)	.	4a/)	.
*v	*v	*	*
=:|!|:	=:|!|:	=:|!|:
*>B	*>B	*>B
2r	(12aa\L	p
.	12bb\	.
.	12gg#\J	.
.	12aa\L	.
.	12bb\	.
.	12gg#\J	.
*clefG2	*	*
=9	=9	=9
*^	*	*
2b/	(4d#\	12aa\L	.
.	.	12ff#\	.
.	.	12bb\J	.
.	4e\)	12gg#\L	.
.	.	12dd#\	.
.	.	12ee\J	.
2a/	(4c#\	12ggn\L	.
.	.	12ee\	.
.	.	12aa\J	.
.	4dn\)	12ff#\L	.
.	.	12cc#\	.
.	.	12ddn\J)	.
*v	*v	*	*
=10	=10	=10
(8b/L	(12dd\L	f
.	12ddd\	.
8a/)	.	.
.	12ccc#\J)	.
(8g/	(12b\L	.
.	12bb\	.
8f#/J)	.	.
.	12aa#\J)	.
(8g/L	(12b\L	.
.	12bb\	.
8f#/)	.	.
.	12aan\J)	.
(8e/	(12g\L	.
.	12gg\	.
8d/J)	.	.
.	12ff#\J)	.
=11	=11	=11
*^	*	*
(2.a/	(4c#\	(12gg\L	.
.	.	12aa\	.
.	.	12gg\J	.
.	4d\	12ff#\L	.
.	.	12gg\	.
.	.	12ff#\J	.
.	4c#\	12ee\L	.
.	.	12ff#\	.
.	.	12ee\J	.
4g#/)	4B\)	12dd\L	.
.	.	12ee\)	.
.	.	12dd\J	.
=12	=12	=12	=12
*	*	*^	*
(4d/	[4A\	(4ff#/	[4a\	.
8c#/)	8A\]	8ee/)	8a\]	.
8r	8ryy	8ryy	8r	.
2r	2ryy	2ryy	(12aa\L	p
.	.	.	12bb\	.
.	.	.	12gg#\J	.
.	.	.	12aa\L	.
.	.	.	12bb\	.
.	.	.	12gg#\J	.
*v	*v	*	*	*
*	*v	*v	*
=13	=13	=13
1r	8aa\)	.
.	8r	.
.	4r	.
.	(12a/L	f
.	12b/	.
.	12g#/J	.
.	12a/L	.
.	12b/	.
.	12cc#/J	.
=14	=14	=14
*^	*	*
4r	2d\	12dd\L	.
.	.	12ee\	.
.	.	12cc#\J	.
4f#/ 4a/	.	12dd\L	.
.	.	12ee#\	.
.	.	12ff#\J	.
4r	2B\	12dd\L	.
.	.	12aa#\	.
.	.	12bb\J	.
4d/ 4f#/	.	12dd\L	.
.	.	12ccc#\	.
.	.	12ddd\J)	.
*v	*v	*	*
*clefF4	*	*
=15	=15	=15
*^	*	*
4r	2G\	(12gg\L	p
.	.	12aan\	.
.	.	12ff#\J	.
4B/ 4e/	.	12gg\L	.
.	.	12dd#\	.
.	.	12een\J	.
4r	2A\	12gg\L	.
.	.	12b#\	.
.	.	12cc#\J	.
4c#/ 4e/	.	12gg\L	.
.	.	12g#\	.
.	.	12a\J)	.
*v	*v	*	*
=16	=16	=16
4d\	(12ff#\L	f
.	12aa\	.
.	12ddd\J)	.
4G\ 4e\	(12aa#\L	.
.	12bb\	.
.	12ggn\J)	.
4A\ 4d\	(12gg#\L	.
.	12aan\	.
.	12ff#\J)	.
4A\ 4c#\	(12ff#\L	.
.	12ggn\	.
.	12ee\J)	.
=17	=17	=17
*^	*	*
(4c#/	2D\	4g\ (4ee\	.
4d/)	.	4f#\ 4dd\)	.
*v	*v	*	*
==:|!	==:|!	==:|!
*-	*-	*-
!!!SMS: Alte Mozart-Ausgabe, Band 20, Breitkopf &amp; H&auml;rtel 1877-1883.
!!!ONB: Stich und Druck von Breitkopf &amp; H&auml;rtel in Leipzig
!!!ONB: Ausgegeben 1878
!!!ENC: Craig Stuart Sapp
!!!END: 2009/09/18/
!!!title: @{OTL}, K 284 (205b), @{OMV}
!!!hum2abc: -s 0.6 --no-tempo
